icons/svg/place_of_worship/hindu3.svg

<?xml version="1.0" encoding="UTF-8" standalone="no"?>
<!-- Created with Inkscape (http://www.inkscape.org/) -->

<svg
   xmlns:dc="http://purl.org/dc/elements/1.1/"
   xmlns:cc="http://creativecommons.org/ns#"
   xmlns:rdf="http://www.w3.org/1999/02/22-rdf-syntax-ns#"
   xmlns:svg="http://www.w3.org/2000/svg"
   xmlns="http://www.w3.org/2000/svg"
   xmlns:sodipodi="http://sodipodi.sourceforge.net/DTD/sodipodi-0.dtd"
   xmlns:inkscape="http://www.inkscape.org/namespaces/inkscape"
   version="1.0"
   width="580"
   height="580"
   id="svg2"
   sodipodi:version="0.32"
   inkscape:version="0.91 r13725"
   sodipodi:docname="hindu3.svg"
   inkscape:output_extension="org.inkscape.output.svg.inkscape">
  <metadata
     id="metadata2975">
    <rdf:RDF>
      <cc:Work
         rdf:about="">
        <dc:format>image/svg+xml</dc:format>
        <dc:type
           rdf:resource="http://purl.org/dc/dcmitype/StillImage" />
        <cc:license
           rdf:resource="http://web.resource.org/cc/PublicDomain" />
        <dc:language>en</dc:language>
      </cc:Work>
    </rdf:RDF>
  </metadata>
  <sodipodi:namedview
     inkscape:window-height="1051"
     inkscape:window-width="1920"
     inkscape:pageshadow="2"
     inkscape:pageopacity="0.0"
     guidetolerance="10.0"
     gridtolerance="10.0"
     objecttolerance="10.0"
     borderopacity="1.0"
     bordercolor="#666666"
     pagecolor="#ffffff"
     id="base"
     inkscape:zoom="0.92167712"
     inkscape:cx="284.92008"
     inkscape:cy="304.70058"
     inkscape:window-x="0"
     inkscape:window-y="0"
     inkscape:current-layer="svg2"
     showgrid="false"
     inkscape:window-maximized="1" />
  <defs
     id="defs4">
    <inkscape:perspective
       sodipodi:type="inkscape:persp3d"
       inkscape:vp_x="0 : 290 : 1"
       inkscape:vp_y="0 : 1000 : 0"
       inkscape:vp_z="580 : 290 : 1"
       inkscape:persp3d-origin="290 : 193.33333 : 1"
       id="perspective2441" />
    <inkscape:perspective
       id="perspective2466"
       inkscape:persp3d-origin="372.04724 : 350.78739 : 1"
       inkscape:vp_z="744.09448 : 526.18109 : 1"
       inkscape:vp_y="0 : 1000 : 0"
       inkscape:vp_x="0 : 526.18109 : 1"
       sodipodi:type="inkscape:persp3d" />
    <inkscape:perspective
       id="perspective3333"
       inkscape:persp3d-origin="372.04724 : 350.78739 : 1"
       inkscape:vp_z="744.09448 : 526.18109 : 1"
       inkscape:vp_y="0 : 1000 : 0"
       inkscape:vp_x="0 : 526.18109 : 1"
       sodipodi:type="inkscape:persp3d" />
    <inkscape:perspective
       id="perspective3401"
       inkscape:persp3d-origin="372.04724 : 350.78739 : 1"
       inkscape:vp_z="744.09448 : 526.18109 : 1"
       inkscape:vp_y="0 : 1000 : 0"
       inkscape:vp_x="0 : 526.18109 : 1"
       sodipodi:type="inkscape:persp3d" />
    <inkscape:perspective
       id="perspective3464"
       inkscape:persp3d-origin="372.04724 : 350.78739 : 1"
       inkscape:vp_z="744.09448 : 526.18109 : 1"
       inkscape:vp_y="0 : 1000 : 0"
       inkscape:vp_x="0 : 526.18109 : 1"
       sodipodi:type="inkscape:persp3d" />
    <inkscape:perspective
       id="perspective3581"
       inkscape:persp3d-origin="225 : 150 : 1"
       inkscape:vp_z="450 : 225 : 1"
       inkscape:vp_y="0 : 1000 : 0"
       inkscape:vp_x="0 : 225 : 1"
       sodipodi:type="inkscape:persp3d" />
    <inkscape:perspective
       id="perspective4312"
       inkscape:persp3d-origin="225 : 150 : 1"
       inkscape:vp_z="450 : 225 : 1"
       inkscape:vp_y="0 : 1000 : 0"
       inkscape:vp_x="0 : 225 : 1"
       sodipodi:type="inkscape:persp3d" />
  </defs>
  <g
     id="g1327">
    <path
       d="M 66.275,1.768 C 24.94,1.768 1.704,23.139 1.704,66.804 L 1.704,516.927 C 1.704,557.771 22.599,579.156 63.896,579.156 L 515.92,579.156 C 557.227,579.156 578.149,558.841 578.149,516.927 L 578.149,66.804 C 578.149,24.203 557.227,1.768 514.628,1.768 C 514.624,1.768 66.133,1.625 66.275,1.768 z "
       style="fill:#111;stroke:#eee;stroke-width:3.40799999"
       id="path1329" />
  </g>
  <path
     style="opacity:1;fill:#ffffff"
     d="M 203.55264,549.39176 C 172.63196,541.32292 145.90208,525.17009 120.76706,499.36452 80.73104,458.2604 58.863878,414.27053 45.914959,348.78542 c -7.385543,-37.35009 -7.398095,-38.25916 -0.596723,-43.23247 13.932696,-10.18784 19.439595,-6.51644 24.113385,16.07622 24.35765,117.74211 100.661869,194.28406 174.891509,175.4364 22.13843,-5.62118 43.25875,-26.87429 49.61218,-49.92415 8.19216,-29.72073 -6.23979,-81.07946 -31.32633,-111.48054 l -8.91525,-10.8039 -15.07042,15.52901 c -15.93722,16.42223 -35.57799,29.95802 -43.5031,29.98093 -4.76522,0.0138 -26.5215,-43.99128 -26.5215,-53.64332 0,-2.82666 10.3482,-9.87041 22.99601,-15.6527 35.49363,-16.22692 50.59118,-34.50414 50.59118,-61.24608 0,-17.40336 -3.06804,-23.47214 -14.98059,-29.63236 -15.33883,-7.93202 -40.879,-6.57545 -71.83294,3.81545 -15.07083,5.05915 -28.26377,9.19842 -29.31762,9.19842 -2.71254,0 -23.68449,-47.46061 -23.68449,-53.5992 0,-10.53081 22.74529,-17.72812 60.70943,-19.21034 34.81935,-1.35944 37.87578,-0.86751 56.96279,9.16838 23.98806,12.61286 41.82197,34.45144 49.64427,60.79199 6.3799,21.4834 7.29809,49.44998 2.07461,63.18877 -5.56317,14.63218 1.51217,14.74588 20.40083,0.32783 20.6384,-15.75362 34.59887,-21.92731 57.27282,-25.32748 16.34901,-2.45167 17.15571,-3.165 21.62267,-19.11946 10.66194,-38.08066 38.90221,-60.55909 76.75628,-61.09583 28.258,-0.40068 44.14473,5.40932 60.44996,22.10739 21.52496,22.04355 29.23386,48.65382 31.11159,107.3932 2.33073,72.91106 -7.46129,112.31982 -35.97879,144.79951 -24.58133,27.99657 -63.24925,38.3441 -93.41849,24.99882 -25.46066,-11.26246 -32.17679,-28.73814 -35.09912,-91.32898 -1.87726,-40.20777 -3.44162,-49.77093 -9.1786,-56.1102 -8.87704,-9.80905 -14.32893,-9.58276 -38.33177,1.59115 l -19.67884,9.16103 7.89693,11.95938 c 51.30273,77.69437 40.67928,162.29623 -23.97048,190.89389 -20.35994,9.00615 -64.29586,11.79787 -88.06371,5.59558 z M 469.46239,418.20642 c 26.52524,-16.1725 44.08965,-61.63076 40.23563,-104.13344 -2.51911,-27.78136 -18.69197,-60.52821 -35.33677,-71.55002 -22.53431,-14.92172 -53.48777,-10.00976 -73.77775,11.70761 l -9.01317,9.64728 7.07191,11.85862 c 5.88448,9.86744 7.26806,20.50789 8.23997,63.36967 1.36467,60.18168 1.92523,63.73354 12.10001,76.66871 9.69872,12.32991 32.44815,13.42571 50.48017,2.43157 z M 286.35803,169.23747 c -9.0955,-3.18219 -23.43528,-10.53176 -31.8661,-16.33235 -16.83412,-11.58215 -49.09962,-46.66762 -49.09962,-53.390804 0,-2.331576 4.2384,-7.016328 9.41865,-10.410568 9.21983,-6.041066 9.73329,-5.887119 24.32218,7.293083 19.33268,17.465909 37.14982,24.744039 60.70234,24.796419 21.10252,0.0469 46.51618,-12.1837 59.43047,-28.601576 3.98065,-5.060557 8.47645,-9.200973 9.99071,-9.200973 2.92886,0 42.0741,32.208429 46.85403,38.551169 4.60799,6.11458 -33.55971,37.98104 -55.18017,46.07033 -23.38205,8.74833 -51.7383,9.21424 -74.57249,1.22527 z m 1.29389,-82.28744 c -9.82898,-10.349777 -18.33237,-20.080644 -18.89646,-21.624177 -0.56411,-1.543521 7.45184,-10.736146 17.81326,-20.42802 l 18.8389,-17.621589 19.59542,19.35203 c 10.7775,10.643611 18.70822,21.199738 17.6238,23.458013 -1.08439,2.258311 -9.87643,11.210484 -19.53784,19.893779 L 305.52278,105.76777 287.65192,86.95003 Z"
     id="path3603"
     sodipodi:nodetypes="csssssscccsssssssssssssssssssssscccsccsscccssccsssssssssccscccsccc"
     inkscape:connector-curvature="0" />
</svg>

<svg width="580" height="580" viewBox="0 0 580 580" fill="none" xmlns="http://www.w3.org/2000/svg">
<g clip-path="url(#clip0)">
<path d="M66.2751 1.76799C24.9401 1.76799 1.7041 23.139 1.7041 66.804V516.927C1.7041 557.771 22.5991 579.156 63.8961 579.156H515.92C557.227 579.156 578.149 558.841 578.149 516.927V66.804C578.149 24.203 557.227 1.76799 514.628 1.76799C514.624 1.76799 66.1331 1.62499 66.2751 1.76799Z" fill="#111111" stroke="#EEEEEE" stroke-width="3.408"/>
<path d="M203.553 549.392C172.632 541.323 145.902 525.17 120.767 499.365C80.7309 458.26 58.8638 414.271 45.9149 348.785C38.5293 311.435 38.5168 310.526 45.3181 305.553C59.2508 295.365 64.7577 299.037 69.4315 321.629C93.7892 439.371 170.093 515.913 244.323 497.066C266.461 491.444 287.582 470.191 293.935 447.141C302.127 417.421 287.695 366.062 262.609 335.661L253.694 324.857L238.623 340.386C222.686 356.808 203.045 370.344 195.12 370.367C190.355 370.381 168.599 326.376 168.599 316.724C168.599 313.897 178.947 306.853 191.595 301.071C227.088 284.844 242.186 266.567 242.186 239.825C242.186 222.421 239.118 216.353 227.205 210.192C211.866 202.26 186.326 203.617 155.372 214.008C140.301 219.067 127.108 223.206 126.055 223.206C123.342 223.206 102.37 175.746 102.37 169.607C102.37 159.076 125.115 151.879 163.08 150.397C197.899 149.037 200.955 149.529 220.042 159.565C244.03 172.178 261.864 194.017 269.687 220.357C276.067 241.841 276.985 269.807 271.761 283.546C266.198 298.178 273.273 298.292 292.162 283.874C312.8 268.12 326.761 261.946 349.435 258.546C365.784 256.095 366.591 255.381 371.058 239.427C381.72 201.346 409.96 178.868 447.814 178.331C476.072 177.93 491.959 183.74 508.264 200.438C529.789 222.482 537.498 249.092 539.375 307.832C541.706 380.743 531.914 420.151 503.397 452.631C478.815 480.628 440.147 490.975 409.978 477.63C384.517 466.367 377.801 448.892 374.879 386.301C373.002 346.093 371.437 336.53 365.7 330.191C356.823 320.382 351.371 320.608 327.369 331.782L307.69 340.943L315.587 352.902C366.889 430.597 356.266 515.199 291.616 543.796C271.256 552.802 227.32 555.594 203.553 549.392V549.392ZM469.462 418.206C495.988 402.034 513.552 356.576 509.698 314.073C507.179 286.292 491.006 253.545 474.361 242.523C451.827 227.601 420.873 232.513 400.583 254.231L391.57 263.878L398.642 275.736C404.527 285.604 405.91 296.244 406.882 339.106C408.247 399.288 408.807 402.84 418.982 415.775C428.681 428.105 451.43 429.201 469.462 418.206V418.206ZM286.358 169.237C277.262 166.055 262.923 158.706 254.492 152.905C237.658 141.323 205.392 106.237 205.392 99.5143C205.392 97.1827 209.631 92.498 214.811 89.1037C224.031 83.0627 224.544 83.2166 239.133 96.3968C258.466 113.863 276.283 121.141 299.835 121.193C320.938 121.24 346.352 109.01 359.266 92.5917C363.247 87.5311 367.742 83.3907 369.257 83.3907C372.185 83.3907 411.331 115.599 416.111 121.942C420.719 128.056 382.551 159.923 360.93 168.012C337.548 176.761 309.192 177.226 286.358 169.237V169.237ZM287.652 86.95C277.823 76.6003 269.319 66.8694 268.755 65.3259C268.191 63.7823 276.207 54.5897 286.569 44.8978L305.408 27.2762L325.003 46.6283C335.78 57.2719 343.711 67.828 342.627 70.0863C341.542 72.3446 332.75 81.2968 323.089 89.9801L305.523 105.768L287.652 86.95V86.95Z" fill="white"/>
</g>
<defs>
<clipPath id="clip0">
<path d="M0 0H580V580H0V0Z" fill="white"/>
</clipPath>
</defs>
</svg>
